source/manual/Azure Test Plans_COLOR.svg

<?xml version="1.0" encoding="UTF-8" standalone="no"?>
<svg
   xmlns:dc="http://purl.org/dc/elements/1.1/"
   xmlns:cc="http://creativecommons.org/ns#"
   xmlns:rdf="http://www.w3.org/1999/02/22-rdf-syntax-ns#"
   xmlns:svg="http://www.w3.org/2000/svg"
   xmlns="http://www.w3.org/2000/svg"
   xmlns:sodipodi="http://sodipodi.sourceforge.net/DTD/sodipodi-0.dtd"
   xmlns:inkscape="http://www.inkscape.org/namespaces/inkscape"
   version="1.1"
   width="104.526"
   height="116.1163"
   viewBox="0 0 104.526 116.1163"
   overflow="hidden"
   id="svg41"
   sodipodi:docname="Azure Test Plans_COLOR.svg"
   style="overflow:hidden;fill:none"
   inkscape:version="0.92.2 (5c3e80d, 2017-08-06)">
  <metadata
     id="metadata45">
    <rdf:RDF>
      <cc:Work
         rdf:about="">
        <dc:format>image/svg+xml</dc:format>
        <dc:type
           rdf:resource="http://purl.org/dc/dcmitype/StillImage" />
      </cc:Work>
    </rdf:RDF>
  </metadata>
  <sodipodi:namedview
     pagecolor="#ffffff"
     bordercolor="#666666"
     borderopacity="1"
     objecttolerance="10"
     gridtolerance="10"
     guidetolerance="10"
     inkscape:pageopacity="0"
     inkscape:pageshadow="2"
     inkscape:window-width="640"
     inkscape:window-height="480"
     id="namedview43"
     showgrid="false"
     inkscape:zoom="2.4583333"
     inkscape:cx="56.29289"
     inkscape:cy="68.116302"
     inkscape:window-x="0"
     inkscape:window-y="0"
     inkscape:window-maximized="0"
     inkscape:current-layer="svg41" />
  <defs
     id="defs19">
    <filter
       id="filter0_f"
       x="-8.2928896"
       y="11.8833"
       width="104.526"
       height="104.233"
       filterUnits="userSpaceOnUse"
       primitiveUnits="userSpaceOnUse"
       style="color-interpolation-filters:sRGB">
      <feFlood
         flood-opacity="0"
         result="BackgroundImageFix"
         id="feFlood2" />
      <feBlend
         in="SourceGraphic"
         in2="BackgroundImageFix"
         result="shape"
         mode="normal"
         id="feBlend4" />
      <feGaussianBlur
         result="effect1_foregroundBlur"
         stdDeviation="16.0584 16.0584"
         id="feGaussianBlur6" />
    </filter>
    <linearGradient
       x2="1"
       gradientUnits="userSpaceOnUse"
       id="paint0_linear"
       gradientTransform="matrix(2.53165e-4,-8,16.117,1.25664e-4,2.01437,7.99976)">
      <stop
         offset="0"
         stop-color="#7B3FC0"
         id="stop9" />
      <stop
         offset="1"
         stop-color="#6724B4"
         id="stop11" />
    </linearGradient>
    <linearGradient
       x2="1"
       gradientUnits="userSpaceOnUse"
       id="paint1_linear"
       gradientTransform="matrix(0,96,-94,0,94,0)">
      <stop
         offset="0"
         stop-color="#FFFFFF"
         id="stop14" />
      <stop
         offset="1"
         stop-color="#FFFFFF"
         stop-opacity="0"
         id="stop16" />
    </linearGradient>
  </defs>
  <g
     id="DevOpsIconTestPlans96"
     transform="translate(8.2928896)">
    <mask
       maskUnits="userSpaceOnUse"
       x="1"
       y="0"
       width="94"
       height="96"
       id="mask0">
      <path
         d="m 26.8538,2 c 0,-1.105469 0.9021,-2 2.0147,-2 h 36.2631 c 1.1126,0 2.0146,0.894531 2.0146,2 v 4 c 0,1.10547 -0.902,2 -2.0146,2 H 63.117 V 27.7109 L 92.3624,78 c 4.6527,8 -1.163,18 -10.468,18 H 12.1057 C 2.80063,96 -3.01501,86 1.63741,78 L 30.8831,27.7109 V 8 H 28.8685 C 27.7559,8 26.8538,7.10547 26.8538,6 Z"
         id="Mask"
         transform="translate(1)"
         inkscape:connector-curvature="0"
         style="fill:#ffffff" />
    </mask>
    <g
       mask="url(#mask0)"
       id="g38">
      <g
         id="Beaker">
        <path
           d="m 36.5317,6 c 4.6526,-8 16.284,-8 20.9366,0 l 34.8942,60 c 4.6526,8 -1.1632,18 -10.4683,18 H 12.1058 C 2.80062,84 -3.01508,74 1.63748,66 Z"
           id="Polygon"
           transform="translate(1,12)"
           inkscape:connector-curvature="0"
           style="fill:#854cc7" />
        <path
           d="M 32.2339,20 V 0 H 0 v 20 z"
           id="Vector"
           transform="translate(31.8831,8)"
           inkscape:connector-curvature="0"
           style="fill:url(#paint0_linear)" />
        <path
           d="M 0,2.0073 C 0,0.898697 0.898697,0 2.0073,0 h 36.2778 c 1.1086,0 2.0073,0.898697 2.0073,2.0073 V 5.9927 C 40.2924,7.1013 39.3937,8 38.2851,8 H 2.0073 C 0.898699,8 0,7.1013 0,5.9927 Z"
           id="Rectangle 2.1"
           transform="translate(27.8538)"
           inkscape:connector-curvature="0"
           style="fill:#a676df" />
        <path
           d="M 32.2339,8 H 0 V 0 h 32.2339 z"
           id="Vector 2 (Stroke).1"
           transform="translate(31.8831)"
           inkscape:connector-curvature="0"
           style="clip-rule:evenodd;fill:#854cc7;fill-rule:evenodd" />
      </g>
      <path
         d="m 86.5468,0 5.8157,10 c 4.6526,8 -1.1631,18 -10.4683,18 H 12.1058 C 2.80061,28 -3.01506,18 1.63746,10 L 7.4532,0 Z"
         id="Liquid"
         transform="translate(0.999756,68)"
         inkscape:connector-curvature="0"
         style="clip-rule:evenodd;fill:#5f1faa;fill-rule:evenodd" />
      <g
         id="Union"
         style="opacity:0.5;filter:url(#filter0_f)">
        <path
           d="M 31.698,19.8945 C 36.5605,19.1836 40.2929,15.0234 40.2929,10 40.2929,4.47656 35.7831,0 30.2198,0 25.1586,0 20.9696,3.70312 20.2544,8.53125 18.934,8.18359 17.5473,8 16.117,8 7.21569,8 0,15.1641 0,24 c 0,8.8359 7.21569,16 16.117,16 8.9012,0 16.1169,-7.1641 16.1169,-16 0,-1.418 -0.1862,-2.793 -0.5359,-4.1055 z"
           transform="translate(23.8239,44)"
           id="path29"
           inkscape:connector-curvature="0"
           style="fill:#4d008a" />
      </g>
      <g
         id="Bubbles">
        <path
           d="M 10.0731,20 C 15.6363,20 20.1462,15.5228 20.1462,10 20.1462,4.47715 15.6363,0 10.0731,0 4.50988,0 0,4.47715 0,10 0,15.5228 4.50988,20 10.0731,20 Z"
           id="Vector_2"
           transform="translate(43.9705,44)"
           inkscape:connector-curvature="0"
           style="fill:#b68ce6" />
        <path
           d="M 20.1462,40 C 31.2726,40 40.2924,31.0457 40.2924,20 40.2924,8.9543 31.2726,0 20.1462,0 9.01976,0 0,8.9543 0,20 0,31.0457 9.01976,40 20.1462,40 Z"
           id="Vector_3"
           transform="matrix(0.8,0,0,0.8,23.8239,52)"
           inkscape:connector-curvature="0"
           style="fill:#c9a4f3" />
        <path
           d="m 32.2339,0 c 0,8.83691 -7.2158,16 -16.117,16 C 7.21582,16 0,8.83691 0,0 Z"
           id="Intersect"
           transform="translate(23.8239,68)"
           inkscape:connector-curvature="0"
           style="fill:#9b60db" />
        <path
           d="m 11.5514,11.3613 c -0.4825,0.0703 -0.9761,0.1065 -1.4783,0.1065 C 4.50989,11.4678 0,6.99023 0,1.46777 0,0.96875 0.0368042,0.479492 0.107788,0 5.68402,1.46582 10.0748,5.82519 11.5514,11.3613 Z"
           id="Intersect_2"
           transform="translate(43.9705,52.5322)"
           inkscape:connector-curvature="0"
           style="clip-rule:evenodd;fill:#e3ccfe;fill-rule:evenodd" />
      </g>
      <path
         d="m 26.8538,2 c 0,-1.104614 0.9021,-2 2.0146,-2 h 36.2632 c 1.1125,0 2.0146,0.895386 2.0146,2 v 4 c 0,1.10461 -0.9021,2 -2.0146,2 H 63.117 V 27.7131 L 92.3624,78 c 4.6529,8 -1.1632,18 -10.4681,18 H 12.1057 C 2.80084,96 -3.01529,86 1.63761,78 L 30.883,27.7131 V 8 H 28.8684 C 27.7559,8 26.8538,7.10461 26.8538,6 Z"
         id="Overlay gradient"
         transform="translate(1)"
         inkscape:connector-curvature="0"
         style="opacity:0.2;fill:url(#paint1_linear)" />
    </g>
  </g>
</svg>

<svg version="1.1" width="96" height="96" viewBox="0 0 96 96" xmlns="http://www.w3.org/2000/svg" xmlns:xlink="http://www.w3.org/1999/xlink" fill="none" overflow="hidden"><defs><filter id="filter0_f" color-interpolation-filters="sRGB" x="-8.29289" y="11.8833" width="104.526" height="104.233" filterUnits="userSpaceOnUse" primitiveUnits="userSpaceOnUse"><feFlood flood-opacity="0" result="BackgroundImageFix"/><feBlend in="SourceGraphic" in2="BackgroundImageFix" result="shape" mode="normal"/><feGaussianBlur result="effect1_foregroundBlur" stdDeviation="16.0584 16.0584"/></filter><linearGradient x2="1" gradientUnits="userSpaceOnUse" id="paint0_linear" gradientTransform="matrix(0.000253165,-8,16.117,0.000125664,2.01437,7.99976)"><stop offset="0" stop-color="#7B3FC0"/><stop offset="1" stop-color="#6724B4"/></linearGradient><linearGradient x2="1" gradientUnits="userSpaceOnUse" id="paint1_linear" gradientTransform="matrix(5.75584e-15,96,-94,5.8783e-15,94,0)"><stop offset="0" stop-color="#FFFFFF"/><stop offset="1" stop-color="#FFFFFF" stop-opacity="0"/></linearGradient></defs><g id="DevOpsIconTestPlans96"><mask maskUnits="userSpaceOnUse" x="1" y="0" width="94" height="96" id="mask0"><path d=" M 26.8538 2 C 26.8538 0.894531 27.7559 0 28.8685 0 L 65.1316 0 C 66.2442 0 67.1462 0.894531 67.1462 2 L 67.1462 6 C 67.1462 7.10547 66.2442 8 65.1316 8 L 63.117 8 L 63.117 27.7109 L 92.3624 78 C 97.0151 86 91.1994 96 81.8944 96 L 12.1057 96 C 2.80063 96 -3.01501 86 1.63741 78 L 30.8831 27.7109 L 30.8831 8 L 28.8685 8 C 27.7559 8 26.8538 7.10547 26.8538 6 L 26.8538 2 Z" id="Mask" fill="#FFFFFF" transform="matrix(1,0,0,1,1,0)"/></mask><g mask="url(#mask0)"><g id="Beaker"><path d=" M 36.5317 6 C 41.1843 -2 52.8157 -2 57.4683 6 L 92.3625 66 C 97.0151 74 91.1993 84 81.8942 84 L 12.1058 84 C 2.80062 84 -3.01508 74 1.63748 66 L 36.5317 6 Z" id="Polygon" fill="#854CC7" transform="matrix(1,0,0,1,1,12)"/><path d=" M 32.2339 20 L 32.2339 0 L 0 0 L 0 20 L 32.2339 20 Z" id="Vector" fill="url(#paint0_linear)" transform="matrix(1,0,0,1,31.8831,8)"/><path d=" M 0 2.0073 C 0 0.898697 0.898697 0 2.0073 0 L 38.2851 0 C 39.3937 0 40.2924 0.898697 40.2924 2.0073 L 40.2924 5.9927 C 40.2924 7.1013 39.3937 8 38.2851 8 L 2.0073 8 C 0.898699 8 0 7.1013 0 5.9927 L 0 2.0073 Z" id="Rectangle 2.1" fill="#A676DF" transform="matrix(1,0,0,1,27.8538,0)"/><path d=" M 32.2339 8 L 0 8 L 0 0 L 32.2339 0 L 32.2339 8 Z" id="Vector 2 (Stroke).1" fill="#854CC7" fill-rule="evenodd" clip-rule="evenodd" transform="matrix(1,0,0,1,31.8831,0)"/></g><path d=" M 86.5468 0 L 92.3625 10 C 97.0151 18 91.1994 28 81.8942 28 L 12.1058 28 C 2.80061 28 -3.01506 18 1.63746 10 L 7.4532 0 L 86.5468 0 Z" id="Liquid" fill="#5F1FAA" fill-rule="evenodd" clip-rule="evenodd" transform="matrix(1,0,0,1,0.999756,68)"/><g id="Union" filter="url(#filter0_f)" opacity="0.5"><path d=" M 31.698 19.8945 C 36.5605 19.1836 40.2929 15.0234 40.2929 10 C 40.2929 4.47656 35.7831 0 30.2198 0 C 25.1586 0 20.9696 3.70312 20.2544 8.53125 C 18.934 8.18359 17.5473 8 16.117 8 C 7.21569 8 0 15.1641 0 24 C 0 32.8359 7.21569 40 16.117 40 C 25.0182 40 32.2339 32.8359 32.2339 24 C 32.2339 22.582 32.0477 21.207 31.698 19.8945 Z" fill="#4D008A" transform="matrix(1,0,0,1,23.8239,44)"/></g><g id="Bubbles"><path d=" M 10.0731 20 C 15.6363 20 20.1462 15.5228 20.1462 10 C 20.1462 4.47715 15.6363 0 10.0731 0 C 4.50988 0 0 4.47715 0 10 C 0 15.5228 4.50988 20 10.0731 20 Z" id="Vector_2" fill="#B68CE6" transform="matrix(1,0,0,1,43.9705,44)"/><path d=" M 20.1462 40 C 31.2726 40 40.2924 31.0457 40.2924 20 C 40.2924 8.9543 31.2726 0 20.1462 0 C 9.01976 0 0 8.9543 0 20 C 0 31.0457 9.01976 40 20.1462 40 Z" id="Vector_3" fill="#C9A4F3" transform="matrix(0.8,0,0,0.8,23.8239,52)"/><path d=" M 32.2339 0 C 32.2339 8.83691 25.0181 16 16.1169 16 C 7.21582 16 0 8.83691 0 0 L 32.2339 0 Z" id="Intersect" fill="#9B60DB" transform="matrix(1,0,0,1,23.8239,68)"/><path d=" M 11.5514 11.3613 C 11.0689 11.4316 10.5753 11.4678 10.0731 11.4678 C 4.50989 11.4678 0 6.99023 0 1.46777 C 0 0.96875 0.0368042 0.479492 0.107788 0 C 5.68402 1.46582 10.0748 5.82519 11.5514 11.3613 Z" id="Intersect_2" fill="#E3CCFE" fill-rule="evenodd" clip-rule="evenodd" transform="matrix(1,0,0,1,43.9705,52.5322)"/></g><path d=" M 26.8538 2 C 26.8538 0.895386 27.7559 0 28.8684 0 L 65.1316 0 C 66.2441 0 67.1462 0.895386 67.1462 2 L 67.1462 6 C 67.1462 7.10461 66.2441 8 65.1316 8 L 63.117 8 L 63.117 27.7131 L 92.3624 78 C 97.0153 86 91.1992 96 81.8943 96 L 12.1057 96 C 2.80084 96 -3.01529 86 1.63761 78 L 30.883 27.7131 L 30.883 8 L 28.8684 8 C 27.7559 8 26.8538 7.10461 26.8538 6 L 26.8538 2 Z" id="Overlay gradient" fill="url(#paint1_linear)" opacity="0.2" transform="matrix(1,0,0,1,1,0)"/></g></g></svg>
